X:1
T:Title
%%score { ( 1 3 ) | ( 2 4 ) }
L:1/8
Q:1/4=100
M:4/4
K:D
V:1 treble nm="Grand Piano"
V:3 treble 
V:2 bass 
V:4 bass 
V:1
 F2 F[EG] [FA][FA] [FA]2 | B2 [Dd]2 [DA]4 | [CA]2 [EG][DF] [CE][DF][EG][GB] | %3
w: I.~H.~Meredith * * * * *|||
 [A,FA]2 [A,EG]2 [A,DF]4 | [A,DF]2 [A,DF][A,EG] [DFA][DFA] [DFA]2 | [EB]2 [Dd]2 [DA]4 | %6
w: |||
 [Fd]2 [Fd]c cB[B,FA][B,EG] | [DF]2[K:bass] [G,CE]2 [F,D]4 | [CE]2 [CE][DF] [EG][EG] [EG]2 | %9
w: |||
 [A,DF]2 [A,EG]2 [DFA]4 | [A,CE]2 [A,CE][A,CE] [CEA]2 [EAc]2 | B4 z4 | %12
w: |||
 [Fd]2 [Fd][Ac] [Ac][GB] [GB]2 | [^Ge]2 [Ge][Bd] [Bd]ccA | [Fd]2 [Fd]2 [Fd]2 AG | F2 [CE]2 D4 |] %16
w: ||||
V:2
 [D,A,D]2 [D,A,D][D,A,] [D,D][D,D] [D,D]2 | [G,D]2 [B,,G,]2 [D,F,]4 | %2
 [A,,E,]2 [A,,A,][A,,A,] [A,,A,][A,,A,][A,,A,][A,,A,] | A,,B,, C,2 D,4 | D,2 D,D, D,D, D,2 | %5
 G,2 [B,,G,]2 [D,F,]4 | [D,A,]2 [D,A,][F,^A,E] [F,A,E][G,B,D]^D,E, | A,2 A,,2 D,4 | %8
 [A,,A,]2 [A,,A,][A,,A,] [A,,A,][A,,A,] [A,,A,]2 | D,2 D,2 D,4 | E,2 E,E, E,2 E,2 | %11
 z2 D2 [A,C]2 z2 | [D,D]2 [D,A,][F,D] [G,D][G,D] [G,D]2 | %13
 [E,E]2 [E,B,][E,E][K:treble] [^G,E][A,EA][A,EA][A,CG] | [D,D]2 [D,B,]2 [D,A,]2 [F,A,D][G,B,E] | %15
 [A,D]2 [A,,G,]2 [D,F,]4 |] %16
V:3
 x8 | x8 | x8 | x8 | x8 | x8 | x8 | x2[K:bass] x6 | x8 | x8 | x8 | [EA]2 ^G2 A2 z2 | x8 | x8 | x8 | %15
 x8 |] %16
V:4
 x8 | x8 | x8 | x8 | x8 | x8 | x8 | x8 | x8 | x8 | x8 | E,4 z4 | x8 | x4[K:treble] x4 | x8 | x8 |] %16

